X:1
T:Arbana -- Reel
R:reel
B:Ryan's Mammoth Collection
Z:Contributed by Ray Davies,  ray:davies99.freeserve.co.uk
M:2/4
L:1/16
K:Bb
U(3FGA| BFdB AFec  | BFdB gfec | BFdB AFec  | AFGA B2 ::
    d2| cBAG FAce  | dBfd bfed | cBAG FAce  | decA B2 ::
 k(gf)| =egBg egBg | fcaf bagf | =egBg egBg | fag=e f2::
    f2| fecA FECE  | DFBd fdbf | fecA FECE  | DBAc B2 :|
